wp-content/themes/blackfoot/assets/img/icon-stat-drainage.svg

<?xml version="1.0" encoding="UTF-8" standalone="no"?>
<svg width="36px" height="36px" viewBox="0 0 36 36" version="1.1" xmlns="http://www.w3.org/2000/svg" xmlns:xlink="http://www.w3.org/1999/xlink" xmlns:sketch="http://www.bohemiancoding.com/sketch/ns">
    <!-- Generator: Sketch 3.3.1 (12002) - http://www.bohemiancoding.com/sketch -->
    <title>Oval 7 Copy + Imported Layers</title>
    <desc>Created with Sketch.</desc>
    <defs></defs>
    <g id="Water" stroke="none" stroke-width="1" fill="none" fill-rule="evenodd" sketch:type="MSPage">
        <g sketch:type="MSArtboardGroup" transform="translate(-413.000000, -1359.000000)" id="THE-STATS">
            <g sketch:type="MSLayerGroup" transform="translate(413.000000, 1148.000000)">
                <g id="Oval-7-Copy-+-Imported-Layers" transform="translate(0.000000, 211.000000)" sketch:type="MSShapeGroup">
                    <circle id="Oval-7-Copy" fill="#999490" cx="18" cy="18" r="18"></circle>
                    <path d="M23.9816805,20.8805587 C23.9816805,20.8534569 23.9806177,20.8266207 23.9795549,20.7995189 C23.9784921,20.791282 23.9784921,20.784108 23.9784921,20.7766683 C23.971318,20.5752642 23.9516559,20.3770486 23.9266797,20.1809587 C23.3899565,16.0707752 19.1865107,10.4059544 18.1983555,9.12100722 C18.0665661,8.94989349 17.9079404,8.96025597 17.7615372,9.15209465 C16.732995,10.4909798 12.5906612,16.1018626 12.0560637,20.1809587 C12.0292275,20.3759858 12.0124881,20.5752642 12.0042513,20.7766683 C12.0042513,20.784108 12.0042513,20.7923448 12.0031885,20.7995189 C12.0031885,20.8266207 12.0021256,20.8523941 12.0010628,20.8805587 C12.0010628,20.9230715 12,20.9645214 12,21.0070341 C12,21.0487497 12.0010628,21.0891368 12.0010628,21.1295239 C12.067489,24.3825446 14.7224087,27 17.9919031,27 C21.3017845,27 23.9838062,24.3179784 23.9838062,21.0080969 C23.9838062,20.9655842 23.9827433,20.9241343 23.9816805,20.8805587 L23.9816805,20.8805587 Z M13.9648851,21.1587514 C13.9638223,21.1359008 13.9638223,21.1130502 13.9638223,21.0901996 C13.9638223,21.0662862 13.9638223,21.04131 13.9648851,21.0195222 C13.9648851,21.0030485 13.9659479,20.987372 13.9659479,20.9730239 C13.9699335,20.8462829 13.9802959,20.7341555 13.9959725,20.6241539 C14.0966745,19.8477652 14.4359792,18.9770514 14.8470241,18.1278597 C15.1616183,17.4792749 15.8362421,17.8871314 15.7530766,18.3489259 C15.7073754,18.6002824 15.5870113,19.8995776 15.5870113,21.0123482 C15.5870113,22.1259159 16.249147,22.9076187 16.5804806,23.3694132 C16.9134084,23.8312077 16.2844857,24.3647424 15.7823041,24.0939894 C14.7277228,23.5261788 13.9898613,22.4343989 13.9648851,21.1587514 Z" id="Imported-Layers" fill="#FFFFFF"></path>
                </g>
            </g>
        </g>
    </g>
</svg>

<svg xmlns="http://www.w3.org/2000/svg" width="36" height="36"><title>Oval 7 Copy + Imported Layers</title><desc>Created with Sketch.</desc><g fill="none"><g><g transform="translate(0 0)"><circle cx="18" cy="18" r="18" fill="#999490"/><path fill="#fff" d="M23.98 20.88c0-.03 0-.05 0-.08 0 0 0-.02 0-.02 0-.2-.03-.4-.05-.6-.54-4.1-4.74-9.77-5.73-11.06-.13-.17-.3-.16-.44.03-1.03 1.34-5.17 6.95-5.7 11.03-.03.2-.05.4-.06.6 0 0 0 0 0 .02 0 .03 0 .05 0 .08 0 .04 0 .08 0 .13s0 .1 0 .13c.07 3.25 2.72 5.87 6 5.87 3.3 0 5.98-2.68 5.98-6 0-.03 0-.08 0-.12zm-10.02.28c0-.02 0-.05 0-.07 0-.03 0-.06 0-.08 0-.02 0-.03 0-.05 0-.12.02-.24.04-.35.1-.77.44-1.64.85-2.5.3-.64 1-.23.9.23-.04.25-.16 1.55-.16 2.66 0 1.13.65 1.9.98 2.37.33.46-.3 1-.8.72-1.05-.57-1.8-1.67-1.82-2.94z"/></g></g></g></svg>
